icons/settings.svg

<svg width="19" height="19" viewBox="0 0 19 19" fill="none" xmlns="http://www.w3.org/2000/svg">
<path d="M6.70312 18.6501C5.97831 18.4448 5.28004 18.1553 4.62258 17.7876C4.50511 17.721 4.40858 17.6229 4.3439 17.5044C4.27921 17.3858 4.24894 17.2516 4.2565 17.1168L4.383 15.1359C4.38425 15.1154 4.38113 15.0949 4.37386 15.0758C4.36659 15.0566 4.35533 15.0392 4.34083 15.0247L3.66329 14.3462C3.64991 14.333 3.63405 14.3225 3.61661 14.3155C3.59918 14.3084 3.58052 14.3048 3.56171 14.305H3.55213L1.56358 14.4286H1.51854C1.3908 14.4285 1.26539 14.3944 1.15523 14.3297C1.04506 14.265 0.954132 14.1721 0.891792 14.0606C0.523737 13.4016 0.234259 12.7017 0.0292921 11.9753C-0.00684676 11.8449 -0.00570973 11.707 0.0325741 11.5773C0.070858 11.4475 0.144755 11.3311 0.245875 11.2412L1.73992 9.92255C1.75519 9.90897 1.76736 9.89228 1.77563 9.8736C1.7839 9.85492 1.78806 9.83468 1.78783 9.81425V8.86455C1.78794 8.84414 1.78372 8.82394 1.77546 8.80527C1.7672 8.78661 1.75509 8.76991 1.73992 8.75625L0.243 7.43759C0.141788 7.34778 0.0678255 7.23136 0.0295349 7.10158C-0.00875566 6.97179 -0.00983593 6.83387 0.0264171 6.7035C0.231679 5.97685 0.521142 5.27668 0.888917 4.61721C0.951505 4.50607 1.04254 4.41358 1.15269 4.34924C1.26283 4.28491 1.38811 4.25105 1.51567 4.25113H1.56071L3.54925 4.37475H3.55883C3.59688 4.37441 3.63331 4.35929 3.66042 4.33259L4.33125 3.66175C4.34563 3.64722 4.35674 3.62979 4.36385 3.61062C4.37095 3.59145 4.37389 3.57098 4.37246 3.55059L4.25075 1.56396C4.24297 1.4291 4.27314 1.29476 4.33785 1.17619C4.40256 1.05761 4.49921 0.95955 4.61683 0.893129C5.2763 0.525354 5.97648 0.235891 6.70312 0.0306288C6.83347 -0.00596907 6.97149 -0.00506029 7.10134 0.0332508C7.23119 0.0715618 7.34761 0.145721 7.43721 0.247212L8.75588 1.73742C8.76953 1.75259 8.78623 1.7647 8.8049 1.77296C8.82356 1.78122 8.84376 1.78544 8.86417 1.78534H9.811C9.83143 1.78556 9.85167 1.7814 9.87035 1.77313C9.88903 1.76487 9.90572 1.75269 9.91929 1.73742L11.2389 0.243379C11.3285 0.141888 11.4449 0.0677285 11.5748 0.0294174C11.7046 -0.00889363 11.8427 -0.00980241 11.973 0.0267955C12.6994 0.231762 13.3993 0.52124 14.0583 0.889295C14.1762 0.955502 14.2731 1.05349 14.338 1.1721C14.4029 1.2907 14.4332 1.42516 14.4254 1.56013L14.3018 3.54867C14.3004 3.56906 14.3033 3.58951 14.3104 3.60867C14.3175 3.62783 14.3286 3.64527 14.343 3.65984L15.0138 4.33067C15.0412 4.35743 15.078 4.37254 15.1163 4.37284H15.125L17.1135 4.24921H17.1537C17.2813 4.24933 17.4065 4.28327 17.5166 4.34759C17.6267 4.4119 17.7178 4.50428 17.7805 4.6153C18.1486 5.27459 18.4381 5.97481 18.643 6.70159C18.6794 6.83195 18.6783 6.9699 18.64 7.09971C18.6017 7.22951 18.5277 7.34593 18.4264 7.43567L16.9391 8.75625C16.9238 8.76986 16.9115 8.78653 16.9031 8.80519C16.8947 8.82385 16.8903 8.84407 16.8902 8.86455V9.81138C16.8903 9.83185 16.8947 9.85208 16.9031 9.87073C16.9115 9.88939 16.9238 9.90607 16.9391 9.91967L18.4331 11.2383C18.5344 11.3281 18.6085 11.4445 18.6468 11.5743C18.6851 11.7041 18.6861 11.8421 18.6497 11.9724C18.4451 12.699 18.1556 13.3989 17.7872 14.0578C17.7248 14.1692 17.6338 14.262 17.5237 14.3267C17.4136 14.3914 17.2882 14.4255 17.1605 14.4258H17.1154L15.1269 14.3021H15.1173C15.0985 14.302 15.0798 14.3055 15.0624 14.3126C15.045 14.3197 15.0291 14.3301 15.0157 14.3433L14.3449 15.0142C14.3307 15.0288 14.3197 15.0463 14.3126 15.0654C14.3055 15.0846 14.3025 15.105 14.3037 15.1253L14.4273 17.1139C14.4361 17.249 14.4063 17.3839 14.3413 17.5027C14.2763 17.6215 14.1788 17.7193 14.0603 17.7847C13.403 18.1529 12.7047 18.4424 11.9797 18.6472C11.8493 18.6846 11.7109 18.6841 11.5807 18.6457C11.4506 18.6074 11.334 18.5328 11.2447 18.4306L9.93079 16.9385C9.91731 16.9231 9.90066 16.9107 9.88197 16.9023C9.86329 16.8938 9.843 16.8895 9.8225 16.8896H8.86417C8.8437 16.8897 8.82347 16.8941 8.80481 16.9025C8.78615 16.9109 8.76948 16.9232 8.75588 16.9385L7.43721 18.4335C7.34761 18.535 7.23119 18.6092 7.10134 18.6475C6.97149 18.6858 6.83347 18.6867 6.70312 18.6501ZM4.67913 13.3275L5.35763 14.005C5.51667 14.164 5.63998 14.355 5.7193 14.5654C5.79863 14.7758 5.83215 15.0006 5.81763 15.225L5.72179 16.7411C6.02873 16.8918 6.34499 17.0227 6.66863 17.133L7.67967 15.9888C7.82824 15.8207 8.01085 15.6861 8.21539 15.5939C8.41993 15.5017 8.64173 15.454 8.86608 15.454H9.82442C10.0489 15.4541 10.2709 15.502 10.4755 15.5945C10.68 15.687 10.8626 15.8221 11.0108 15.9907L12.0161 17.1321C12.3401 17.0214 12.6566 16.8901 12.9639 16.7392L12.8681 15.2154C12.8543 14.9915 12.8883 14.7672 12.9678 14.5574C13.0473 14.3475 13.1704 14.157 13.329 13.9983L13.9999 13.3275C14.2974 13.0322 14.6991 12.8659 15.1183 12.8646H15.2141L16.7378 12.9605C16.8897 12.6517 17.0216 12.3335 17.1327 12.0079L15.9884 10.9968C15.8203 10.8483 15.6857 10.6657 15.5935 10.4611C15.5013 10.2566 15.4536 10.0348 15.4537 9.81042V8.86455C15.4536 8.64019 15.5013 8.41839 15.5935 8.21385C15.6857 8.00931 15.8203 7.8267 15.9884 7.67813L17.1327 6.66709C17.0219 6.34133 16.89 6.02313 16.7378 5.7145L15.2141 5.81034C15.1825 5.81034 15.1489 5.81034 15.1183 5.81034C14.9101 5.81095 14.7039 5.77028 14.5116 5.69066C14.3193 5.61104 14.1447 5.49406 13.998 5.3465L13.3271 4.67567C13.1685 4.51723 13.0453 4.32686 12.9658 4.11719C12.8864 3.90752 12.8524 3.68335 12.8662 3.45955L12.962 1.9358C12.6529 1.78444 12.3348 1.65226 12.0094 1.54L10.9984 2.69C10.8498 2.85811 10.6672 2.99273 10.4627 3.08492C10.2581 3.17711 10.0363 3.22477 9.81196 3.22475H8.86417C8.63981 3.22477 8.41801 3.17711 8.21347 3.08492C8.00893 2.99273 7.82633 2.85811 7.67775 2.69L6.66767 1.54288C6.34236 1.65525 6.02424 1.78743 5.71508 1.93867L5.81092 3.46242C5.8247 3.68622 5.79073 3.9104 5.71126 4.12007C5.63178 4.32974 5.50863 4.52011 5.34996 4.67855L4.67913 5.34938C4.53259 5.49699 4.35817 5.61402 4.16601 5.69364C3.97386 5.77327 3.76779 5.81391 3.55979 5.81321C3.52817 5.81321 3.49558 5.81321 3.46396 5.81321L1.94021 5.71738C1.78885 6.02648 1.65667 6.34461 1.54442 6.66996L2.69442 7.681C2.86094 7.82987 2.99408 8.01228 3.08509 8.21627C3.1761 8.42025 3.22291 8.64118 3.22246 8.86455V9.81138C3.22248 10.0357 3.17481 10.2575 3.08262 10.4621C2.99043 10.6666 2.85582 10.8492 2.68771 10.9978L1.53771 12.0088C1.64977 12.3343 1.78196 12.6524 1.9335 12.9614L3.45725 12.8656H3.55308C3.76208 12.8637 3.96933 12.9037 4.16269 12.983C4.35606 13.0623 4.53163 13.1794 4.67913 13.3275ZM4.78071 9.33317C4.78071 8.43285 5.04768 7.55275 5.54787 6.80417C6.04806 6.05558 6.759 5.47213 7.59079 5.12759C8.42257 4.78306 9.33784 4.69291 10.2209 4.86855C11.1039 5.0442 11.915 5.47774 12.5516 6.11436C13.1882 6.75098 13.6218 7.56209 13.7974 8.4451C13.9731 9.32812 13.8829 10.2434 13.5384 11.0752C13.1938 11.907 12.6104 12.6179 11.8618 13.1181C11.1132 13.6183 10.2331 13.8853 9.33279 13.8853C8.12597 13.8837 6.96901 13.4037 6.11566 12.5503C5.26231 11.6969 4.78223 10.54 4.78071 9.33317ZM6.21821 9.33317C6.21821 9.94918 6.40088 10.5513 6.74311 11.0635C7.08535 11.5757 7.57178 11.9749 8.14089 12.2107C8.71001 12.4464 9.33625 12.5081 9.94042 12.3879C10.5446 12.2677 11.0996 11.9711 11.5351 11.5355C11.9707 11.0999 12.2674 10.545 12.3875 9.9408C12.5077 9.33663 12.446 8.71039 12.2103 8.14127C11.9746 7.57216 11.5754 7.08572 11.0632 6.74349C10.551 6.40125 9.9488 6.21859 9.33279 6.21859C8.50706 6.2196 7.71545 6.54807 7.13157 7.13195C6.54769 7.71583 6.21922 8.50744 6.21821 9.33317Z" fill="#1B8CFF"/>
</svg>

<svg xmlns="http://www.w3.org/2000/svg" width="19" height="19" fill="none"><path fill="#1B8CFF" d="M6.703 18.65a9.65 9.65 0 0 1-2.08-.862.725.725 0 0 1-.367-.671l.127-1.981a.144.144 0 0 0-.042-.111l-.678-.679a.142.142 0 0 0-.101-.041h-.01l-1.988.124h-.045a.718.718 0 0 1-.627-.368 9.652 9.652 0 0 1-.863-2.086.723.723 0 0 1 .217-.734L1.74 9.923a.143.143 0 0 0 .048-.109v-.95a.145.145 0 0 0-.048-.108L.243 7.438a.723.723 0 0 1-.217-.734A9.694 9.694 0 0 1 .89 4.617a.719.719 0 0 1 .627-.366h.045l1.988.124h.01a.147.147 0 0 0 .101-.042l.671-.671a.144.144 0 0 0 .041-.111l-.121-1.987a.723.723 0 0 1 .366-.67A9.694 9.694 0 0 1 6.703.03a.72.72 0 0 1 .734.216l1.319 1.49a.145.145 0 0 0 .108.048h.947a.143.143 0 0 0 .108-.048L11.24.243a.72.72 0 0 1 .734-.216 9.652 9.652 0 0 1 2.085.862.722.722 0 0 1 .367.671l-.123 1.989a.144.144 0 0 0 .041.11l.67.672a.148.148 0 0 0 .103.042h.009l1.988-.124h.04a.72.72 0 0 1 .628.366c.368.66.657 1.36.862 2.087a.721.721 0 0 1-.217.734l-1.487 1.32a.145.145 0 0 0-.049.109v.946a.146.146 0 0 0 .05.109l1.493 1.318a.722.722 0 0 1 .217.734 9.611 9.611 0 0 1-.863 2.086.72.72 0 0 1-.627.368h-.045l-1.988-.124h-.01a.143.143 0 0 0-.101.041l-.671.671a.147.147 0 0 0-.041.111l.123 1.989a.713.713 0 0 1-.367.67 9.594 9.594 0 0 1-2.08.863.714.714 0 0 1-.735-.216L9.93 16.939a.143.143 0 0 0-.108-.05h-.959a.146.146 0 0 0-.108.05l-1.319 1.494a.72.72 0 0 1-.734.217ZM4.68 13.328l.679.677a1.581 1.581 0 0 1 .46 1.22l-.096 1.516c.307.15.623.282.947.392l1.01-1.144a1.583 1.583 0 0 1 1.187-.535h.958a1.582 1.582 0 0 1 1.187.537l1.005 1.141c.324-.11.64-.242.948-.393l-.096-1.524a1.582 1.582 0 0 1 .461-1.217l.67-.67c.298-.296.7-.462 1.12-.463h.095l1.524.095c.152-.308.284-.627.395-.952l-1.145-1.011a1.582 1.582 0 0 1-.534-1.187v-.945a1.582 1.582 0 0 1 .534-1.187l1.145-1.01a7.92 7.92 0 0 0-.395-.954l-1.524.096h-.096a1.574 1.574 0 0 1-1.12-.463l-.67-.671a1.583 1.583 0 0 1-.462-1.216l.096-1.524a8.381 8.381 0 0 0-.953-.396L11 2.69a1.584 1.584 0 0 1-1.187.535h-.948a1.583 1.583 0 0 1-1.186-.535l-1.01-1.147a8.435 8.435 0 0 0-.953.396l.096 1.523A1.581 1.581 0 0 1 5.35 4.68l-.67.67a1.57 1.57 0 0 1-1.12.464h-.096L1.94 5.717c-.151.31-.283.628-.396.953l1.15 1.011a1.583 1.583 0 0 1 .528 1.184v.946a1.584 1.584 0 0 1-.534 1.187l-1.15 1.01c.112.326.244.644.395.953l1.524-.095h.096a1.57 1.57 0 0 1 1.126.462Zm.102-3.995a4.552 4.552 0 1 1 9.104 0 4.552 4.552 0 0 1-9.104 0Zm1.437 0a3.115 3.115 0 1 0 6.23 0 3.115 3.115 0 0 0-6.23 0Z"/></svg>
